icons/arrow-square-topB.svg

<svg width="24" height="24" viewBox="0 0 24 24" fill="none" xmlns="http://www.w3.org/2000/svg">
<path d="M21 9V15C21 18.3 18.3 21 15 21H9C5.7 21 3 18.3 3 15V9C3 5.7 5.7 3 9 3H15C18.3 3 21 5.6 21 9Z" fill="black"/>
<path fill-rule="evenodd" clip-rule="evenodd" d="M9 3.75C6.11421 3.75 3.75 6.11421 3.75 9V15C3.75 17.8858 6.11421 20.25 9 20.25H15C17.8858 20.25 20.25 17.8858 20.25 15V9C20.25 6.02236 17.894 3.75 15 3.75H9ZM2.25 9C2.25 5.28579 5.28579 2.25 9 2.25H15C18.706 2.25 21.75 5.17764 21.75 9V15C21.75 18.7142 18.7142 21.75 15 21.75H9C5.28579 21.75 2.25 18.7142 2.25 15V9Z" fill="black"/>
<path d="M9.10004 11.2999L11.6 8.7999C11.8 8.5999 12.1 8.5999 12.3 8.7999L14.8 11.2999" fill="black"/>
<path fill-rule="evenodd" clip-rule="evenodd" d="M11.95 9.51056L14.2697 11.8302C14.5626 12.1231 15.0375 12.1231 15.3304 11.8302C15.6233 11.5373 15.6233 11.0625 15.3304 10.7696L12.8304 8.26957C12.3375 7.77668 11.5626 7.77668 11.0697 8.26957L11.6 8.7999L11.0697 8.26957L8.56971 10.7696C8.27681 11.0625 8.27681 11.5373 8.56971 11.8302C8.8626 12.1231 9.33747 12.1231 9.63037 11.8302L11.95 9.51056Z" fill="white"/>
<path fill-rule="evenodd" clip-rule="evenodd" d="M12 8.54993C12.4142 8.54993 12.75 8.88571 12.75 9.29993V15.2999C12.75 15.7141 12.4142 16.0499 12 16.0499C11.5858 16.0499 11.25 15.7141 11.25 15.2999V9.29993C11.25 8.88571 11.5858 8.54993 12 8.54993Z" fill="white"/>
</svg>

<svg xmlns="http://www.w3.org/2000/svg" fill="none" viewBox="0 0 24 24">
  <path fill="#000" d="M21 9v6c0 3.3-2.7 6-6 6H9c-3.3 0-6-2.7-6-6V9c0-3.3 2.7-6 6-6h6c3.3 0 6 2.6 6 6Z"/>
  <path fill="#000" fill-rule="evenodd" d="M9 3.75C6.114 3.75 3.75 6.114 3.75 9v6c0 2.886 2.364 5.25 5.25 5.25h6c2.886 0 5.25-2.364 5.25-5.25V9c0-2.978-2.356-5.25-5.25-5.25H9ZM2.25 9c0-3.714 3.036-6.75 6.75-6.75h6c3.706 0 6.75 2.928 6.75 6.75v6c0 3.714-3.036 6.75-6.75 6.75H9c-3.714 0-6.75-3.036-6.75-6.75V9Z" clip-rule="evenodd"/>
  <path fill="#000" d="m9.1 11.3 2.5-2.5c.2-.2.5-.2.7 0l2.5 2.5"/>
  <path fill="#fff" fill-rule="evenodd" d="m11.95 9.51 2.32 2.32a.75.75 0 0 0 1.06-1.06l-2.5-2.5a1.233 1.233 0 0 0-1.76 0l.53.53-.53-.53-2.5 2.5a.75.75 0 1 0 1.06 1.06l2.32-2.32Z" clip-rule="evenodd"/>
  <path fill="#fff" fill-rule="evenodd" d="M12 8.55a.75.75 0 0 1 .75.75v6a.75.75 0 0 1-1.5 0v-6a.75.75 0 0 1 .75-.75Z" clip-rule="evenodd"/>
</svg>
